; generated by Slic3r 1.0.1 on 2014-06-19 at 12:56:57

; layer_height = 0.4
; perimeters = 3
; top_solid_layers = 3
; bottom_solid_layers = 3
; fill_density = 0.4
; perimeter_speed = 30
; infill_speed = 60
; travel_speed = 130
; nozzle_diameter = 0.5
; filament_diameter = 2.8
; extrusion_multiplier = 1
; perimeters extrusion width = 0.50mm
; infill extrusion width = 0.53mm
; solid infill extrusion width = 0.53mm
; top infill extrusion width = 0.53mm
; first layer extrusion width = 0.70mm

G21 ; set units to millimeters
M107
M190 S70 ; wait for bed temperature to be reached
M104 S185 ; set temperature
G28 ; home all axes
G1 Z5 F5000 ; lift nozzle
M109 S185 ; wait for temperature to be reached
G90 ; use absolute coordinates
G92 E0
M82 ; use absolute distances for extrusion
G1 F1800.000 E-1.00000
G92 E0
G1 Z0.350 F7800.000
G1 X77.520 Y58.430 F7800.000
G1 E1.00000 F1800.000
G1 X78.720 Y57.360 E1.06005 F540.000
G1 X80.300 Y56.270 E1.13174
G1 X81.550 Y55.590 E1.18489
G1 X82.930 Y55.190 E1.23855
G1 X84.350 Y54.940 E1.29240
G1 X84.920 Y54.870 E1.31385
G1 X85.500 Y54.840 E1.33554
G1 X114.500 Y54.840 E2.41867
G1 X115.260 Y54.870 E2.44707
G1 X116.320 Y55.000 E2.48696
G1 X117.340 Y55.300 E2.52667
G1 X119.130 Y55.980 E2.59819
G1 X120.560 Y56.730 E2.65850
G1 X121.760 Y57.800 E2.71854
G1 X123.030 Y59.240 E2.79026
G1 X123.940 Y60.550 E2.84983
G1 X124.500 Y62.040 E2.90928
G1 X124.960 Y63.900 E2.98084
G1 X125.110 Y64.690 E3.01088
G1 X125.160 Y65.500 E3.04119
G1 X125.160 Y134.490 E5.61790
G1 X125.110 Y135.300 E5.64821
G1 X124.960 Y136.090 E5.67824
G1 X124.500 Y137.950 E5.74981
G1 X123.940 Y139.440 E5.80926
G1 X123.030 Y140.750 E5.86883
G1 X121.760 Y142.190 E5.94054
G1 X120.560 Y143.260 E6.00059
G1 X119.130 Y144.010 E6.06090
G1 X117.340 Y144.690 E6.13242
G1 X116.390 Y144.980 E6.16951
G1 X115.400 Y145.110 E6.20681
G1 X114.500 Y145.160 E6.24047
G1 X85.500 Y145.160 E7.32360
G1 X84.900 Y145.130 E7.34603
G1 X84.300 Y145.050 E7.36864
G1 X82.880 Y144.790 E7.42256
G1 X81.530 Y144.390 E7.47515
G1 X80.300 Y143.720 E7.52746
G1 X78.720 Y142.630 E7.59915
G1 X77.520 Y141.560 E7.65920
G1 X76.600 Y140.240 E7.71929
G1 X75.710 Y138.540 E7.79096
G1 X75.250 Y137.410 E7.83653
G1 X75.000 Y136.220 E7.88195
G1 X74.890 Y135.270 E7.91766
G1 X74.840 Y134.500 E7.94648
G1 X74.840 Y65.500 E10.52357
G1 X74.890 Y64.740 E10.55202
G1 X75.000 Y63.780 E10.58811
G1 X75.250 Y62.580 E10.63389
G1 X75.710 Y61.450 E10.67946
G1 X76.600 Y59.750 E10.75112
G1 X77.464 Y58.511 E10.80754
G1 F1800.000 E9.80754
G92 E0
G1 X109.632 Y125.483 F7800.000
G1 E1.00000 F1800.000
G1 X112.568 Y125.483 E1.10964 F540.000
G1 X114.943 Y127.208 E1.21928
G1 X115.850 Y130.000 E1.32892
G1 X114.943 Y132.792 E1.43856
G1 X112.568 Y134.517 E1.54820
G1 X109.632 Y134.517 E1.65785
G1 X107.257 Y132.792 E1.76748
G1 X106.350 Y130.000 E1.87713
G1 X107.257 Y127.208 E1.98676
G1 X109.552 Y125.541 E2.09272
G1 X109.846 Y126.140 F7800.000
G1 X112.354 Y126.140 E2.18642 F540.000
G1 X114.384 Y127.614 E2.28011
G1 X115.159 Y130.000 E2.37380
G1 X114.384 Y132.386 E2.46749
G1 X112.354 Y133.860 E2.56118
G1 X109.846 Y133.860 E2.65488
G1 X107.816 Y132.386 E2.74857
G1 X107.041 Y130.000 E2.84226
G1 X107.816 Y127.614 E2.93595
G1 X109.766 Y126.198 E3.02596
G1 X110.059 Y126.797 F7800.000
G1 X112.141 Y126.797 E3.10371 F540.000
G1 X113.825 Y128.020 E3.18146
G1 X114.468 Y130.000 E3.25920
G1 X113.825 Y131.980 E3.33694
G1 X112.141 Y133.203 E3.41469
G1 X110.059 Y133.203 E3.49243
G1 X108.375 Y131.980 E3.57018
G1 X107.732 Y130.000 E3.64792
G1 X108.375 Y128.020 E3.72567
G1 X109.979 Y126.855 E3.79973
G1 X110.262 Y126.172 F7800.000
G1 X109.632 Y114.517 F7800.000
G1 X107.257 Y112.792 E3.90937 F540.000
G1 X106.350 Y110.000 E4.01900
G1 X107.257 Y107.208 E4.12865
G1 X109.632 Y105.483 E4.23828
G1 X112.568 Y105.483 E4.34793
G1 X114.943 Y107.208 E4.45757
G1 X115.850 Y110.000 E4.56721
G1 X114.943 Y112.792 E4.67685
G1 X112.568 Y114.517 E4.78649
G1 X109.731 Y114.517 E4.89245
G1 X109.846 Y113.860 F7800.000
G1 X107.816 Y112.386 E4.98614 F540.000
G1 X107.041 Y110.000 E5.07983
G1 X107.816 Y107.614 E5.17352
G1 X109.846 Y106.140 E5.26721
G1 X112.354 Y106.140 E5.36091
G1 X114.384 Y107.614 E5.45460
G1 X115.159 Y110.000 E5.54829
G1 X114.384 Y112.386 E5.64198
G1 X112.354 Y113.860 E5.73568
G1 X109.944 Y113.860 E5.82569
G1 X110.059 Y113.203 F7800.000
G1 X108.375 Y111.980 E5.90343 F540.000
G1 X107.732 Y110.000 E5.98118
G1 X108.375 Y108.020 E6.05892
G1 X110.059 Y106.797 E6.13666
G1 X112.141 Y106.797 E6.21441
G1 X113.825 Y108.020 E6.29216
G1 X114.468 Y110.000 E6.36990
G1 X113.825 Y111.980 E6.44764
G1 X112.141 Y113.203 E6.52539
G1 X110.158 Y113.203 E6.59945
G1 X109.528 Y113.589 F7800.000
G1 X93.650 Y110.000 F7800.000
G1 X92.743 Y112.792 E6.70909 F540.000
G1 X90.368 Y114.517 E6.81873
G1 X87.432 Y114.517 E6.92838
G1 X85.057 Y112.792 E7.03802
G1 X84.150 Y110.000 E7.14765
G1 X85.057 Y107.208 E7.25729
G1 X87.432 Y105.483 E7.36693
G1 X90.368 Y105.483 E7.47658
G1 X92.743 Y107.208 E7.58622
G1 X93.619 Y109.906 E7.69218
G1 X92.959 Y110.000 F7800.000
G1 X92.184 Y112.386 E7.78587 F540.000
G1 X90.154 Y113.860 E7.87956
G1 X87.646 Y113.860 E7.97325
G1 X85.616 Y112.386 E8.06695
G1 X84.841 Y110.000 E8.16064
G1 X85.616 Y107.614 E8.25433
G1 X87.646 Y106.140 E8.34802
G1 X90.154 Y106.140 E8.44172
G1 X92.184 Y107.614 E8.53541
G1 X92.928 Y109.906 E8.62542
G1 X92.268 Y110.000 F7800.000
G1 X91.625 Y111.980 E8.70316 F540.000
G1 X89.941 Y113.203 E8.78090
G1 X87.859 Y113.203 E8.85865
G1 X86.175 Y111.980 E8.93640
G1 X85.532 Y110.000 E9.01414
G1 X86.175 Y108.020 E9.09188
G1 X87.859 Y106.797 E9.16963
G1 X89.941 Y106.797 E9.24738
G1 X91.625 Y108.020 E9.32512
G1 X92.238 Y109.906 E9.39918
G1 X92.800 Y110.386 F7800.000
G1 X90.368 Y125.483 F7800.000
G1 X92.743 Y127.208 E9.50882 F540.000
G1 X93.650 Y130.000 E9.61846
G1 X92.743 Y132.792 E9.72810
G1 X90.368 Y134.517 E9.83774
G1 X87.432 Y134.517 E9.94738
G1 X85.057 Y132.792 E10.05702
G1 X84.150 Y130.000 E10.16666
G1 X85.057 Y127.208 E10.27630
G1 X87.432 Y125.483 E10.38594
G1 X90.269 Y125.483 E10.49190
G1 X90.154 Y126.140 F7800.000
G1 X92.184 Y127.614 E10.58559 F540.000
G1 X92.959 Y130.000 E10.67928
G1 X92.184 Y132.386 E10.77298
G1 X90.154 Y133.860 E10.86667
G1 X87.646 Y133.860 E10.96036
G1 X85.616 Y132.386 E11.05406
G1 X84.841 Y130.000 E11.14775
G1 X85.616 Y127.614 E11.24144
G1 X87.646 Y126.140 E11.33513
G1 X90.056 Y126.140 E11.42515
G1 X89.941 Y126.797 F7800.000
G1 X91.625 Y128.020 E11.50289 F540.000
G1 X92.268 Y130.000 E11.58063
G1 X91.625 Y131.980 E11.65838
G1 X89.941 Y133.203 E11.73612
G1 X87.859 Y133.203 E11.81387
G1 X86.175 Y131.980 E11.89161
G1 X85.532 Y130.000 E11.96936
G1 X86.175 Y128.020 E12.04710
G1 X87.859 Y126.797 E12.12484
G1 X89.842 Y126.797 E12.19891
G1 X90.472 Y126.411 F7800.000
G1 F1800.000 E11.19891
G92 E0
G1 X83.280 Y132.836 F7800.000
G1 E1.00000 F1800.000
G1 X83.164 Y132.836 E1.00434 F540.000
G1 X83.164 Y107.164 E1.96315
G1 X83.280 Y107.164 E1.96749
G1 X83.280 Y104.953 E2.05008
G1 X83.789 Y103.984 E2.09095
G1 X84.689 Y103.362 E2.13182
G1 X86.323 Y103.164 E2.19328
G1 X112.836 Y103.164 E3.18351
G1 X112.836 Y103.466 E3.19478
G1 X114.775 Y103.231 E3.26776
G1 X115.799 Y103.619 E3.30863
G1 X116.524 Y104.438 E3.34949
G1 X116.836 Y105.702 E3.39813
G1 X116.836 Y134.298 E4.46616
G1 X116.524 Y135.562 E4.51480
G1 X115.799 Y136.381 E4.55566
G1 X114.775 Y136.769 E4.59653
G1 X112.836 Y136.534 E4.66951
G1 X112.836 Y136.836 E4.68078
G1 X86.323 Y136.836 E5.67101
G1 X84.689 Y136.638 E5.73248
G1 X83.789 Y136.016 E5.77334
G1 X83.280 Y135.047 E5.81421
G1 X83.280 Y132.934 E5.89312
G1 X82.623 Y133.493 F7800.000
G1 X82.507 Y133.493 E5.89746 F540.000
G1 X82.507 Y106.507 E6.90535
G1 X82.623 Y106.507 E6.90969
G1 X82.623 Y104.791 E6.97379
G1 X83.282 Y103.535 E7.02675
G1 X84.449 Y102.730 E7.07972
G1 X86.283 Y102.507 E7.14872
G1 X113.493 Y102.507 E8.16497
G1 X113.493 Y102.724 E8.17309
G1 X114.857 Y102.559 E8.22441
G1 X116.183 Y103.062 E8.27738
G1 X117.123 Y104.123 E8.33034
G1 X117.493 Y105.622 E8.38801
G1 X117.493 Y134.378 E9.46200
G1 X117.123 Y135.877 E9.51966
G1 X116.183 Y136.938 E9.57263
G1 X114.857 Y137.441 E9.62559
G1 X113.493 Y137.276 E9.67692
G1 X113.493 Y137.493 E9.68503
G1 X86.283 Y137.493 E10.70129
G1 X84.449 Y137.270 E10.77028
G1 X83.282 Y136.465 E10.82325
G1 X82.623 Y135.209 E10.87621
G1 X82.623 Y133.591 E10.93663
G1 X81.966 Y134.150 F7800.000
G1 X81.850 Y134.150 E10.94097 F378.000
G1 X81.850 Y105.850 E11.99795
G1 X81.966 Y105.850 E12.00229
G1 X81.966 Y104.629 E12.04789
G1 X82.776 Y103.087 E12.11295
G1 X84.209 Y102.097 E12.17802
G1 X85.850 Y101.898 E12.23974
G1 X85.850 Y101.850 E12.24152
G1 X114.150 Y101.850 E13.29850
G1 X114.150 Y101.983 E13.30346
G1 X114.939 Y101.887 E13.33313
G1 X116.568 Y102.505 E13.39820
G1 X117.723 Y103.809 E13.46326
G1 X118.150 Y105.543 E13.52995
G1 X118.150 Y134.457 E14.60990
G1 X117.723 Y136.191 E14.67660
G1 X116.568 Y137.495 E14.74166
G1 X114.939 Y138.113 E14.80672
G1 X114.150 Y138.017 E14.83640
G1 X114.150 Y138.150 E14.84135
G1 X85.850 Y138.150 E15.89833
G1 X85.850 Y138.102 E15.90012
G1 X84.209 Y137.903 E15.96184
G1 X82.776 Y136.913 E16.02690
G1 X81.966 Y135.371 E16.09197
G1 X81.966 Y134.249 E16.13389
G1 X81.966 Y134.034 F7800.000
G1 X84.195 Y135.730 F7800.000
G1 X84.132 Y135.667 E16.13726 F1080.000
G1 X83.747 Y134.340 E16.18949
G1 X85.696 Y136.290 E16.29374
G1 X86.717 Y136.369 E16.33244
G1 X83.747 Y133.400 E16.49125
G1 X85.076 Y133.788 E16.54360
G1 X87.657 Y136.369 E16.68166
G1 X88.598 Y136.369 E16.71723
G1 X87.031 Y134.802 E16.80103
G1 X88.153 Y134.984 E16.84402
G1 X89.539 Y136.369 E16.91812
G1 X90.480 Y136.369 E16.95369
G1 X89.094 Y134.984 E17.02780
G1 X90.035 Y134.984 E17.06337
G1 X91.420 Y136.369 E17.13747
G1 X92.361 Y136.369 E17.17304
G1 X90.784 Y134.792 E17.25741
G1 X91.328 Y134.396 E17.28288
G1 X93.302 Y136.369 E17.38842
G1 X94.243 Y136.369 E17.42399
G1 X91.873 Y134.000 E17.55070
G1 X92.418 Y133.604 E17.57616
G1 X95.184 Y136.369 E17.72404
G1 X96.124 Y136.369 E17.75961
G1 X92.963 Y133.208 E17.92866
G1 X93.295 Y132.600 E17.95488
G1 X97.065 Y136.369 E18.15646
G1 X98.006 Y136.369 E18.19203
G1 X93.526 Y131.890 E18.43158
G1 X93.757 Y131.180 E18.45982
G1 X98.947 Y136.369 E18.73734
G1 X99.887 Y136.369 E18.77291
G1 X93.988 Y130.470 E19.08841
G1 X93.987 Y129.528 E19.12401
G1 X100.828 Y136.369 E19.48985
G1 X101.769 Y136.369 E19.52542
G1 X93.534 Y128.135 E19.96579
G1 X90.416 Y125.016 F7800.000
G1 X83.631 Y118.231 E20.32863 F1080.000
G1 X83.631 Y117.290 E20.36420
G1 X102.710 Y136.369 E21.38446
G1 X103.651 Y136.369 E21.42003
G1 X83.631 Y116.349 E22.49060
G1 X83.631 Y115.409 E22.52617
G1 X104.591 Y136.369 E23.64704
G1 X105.532 Y136.369 E23.68262
G1 X83.631 Y114.468 E24.85380
G1 X83.631 Y113.527 E24.88937
G1 X106.473 Y136.369 E26.11086
G1 X107.414 Y136.369 E26.14643
G1 X83.631 Y112.586 E27.41823
G1 X84.382 Y112.397 E27.44754
G1 X84.466 Y112.481 E27.45201
G1 X86.140 Y114.155 F7800.000
G1 X108.354 Y136.369 E28.63994 F1080.000
G1 X109.295 Y136.369 E28.67551
G1 X87.909 Y114.984 E29.81911
G1 X88.850 Y114.984 E29.85468
G1 X110.236 Y136.369 E30.99828
G1 X111.177 Y136.369 E31.03386
G1 X109.791 Y134.984 E31.10796
G1 X110.732 Y134.984 E31.14353
G1 X112.118 Y136.369 E31.21763
G1 X112.742 Y136.053 E31.24410
G1 X111.673 Y134.984 E31.30126
G1 X112.613 Y134.984 E31.33684
G1 X113.812 Y136.183 E31.40095
G1 X114.823 Y136.253 E31.43926
G1 X113.203 Y134.632 E31.52589
G1 X113.748 Y134.237 E31.55136
G1 X115.504 Y135.993 E31.64529
G1 X115.954 Y135.502 E31.67047
G1 X114.293 Y133.841 E31.75933
G1 X114.838 Y133.445 E31.78480
G1 X116.224 Y134.831 E31.85894
G1 X116.369 Y134.036 E31.88951
G1 X115.358 Y133.024 E31.94362
G1 X115.682 Y132.408 E31.96996
G1 X116.369 Y133.095 E32.00674
G1 X115.586 Y127.608 F7800.000
G1 X115.552 Y127.574 E32.00856 F1080.000
G1 X116.369 Y127.451 E32.03982
G1 X92.549 Y103.631 E33.31359
G1 X93.490 Y103.631 E33.34916
G1 X116.369 Y126.510 E34.57263
G1 X116.369 Y125.569 E34.60820
G1 X94.431 Y103.631 E35.78135
G1 X95.372 Y103.631 E35.81693
G1 X116.369 Y124.628 E36.93977
G1 X116.369 Y123.687 E36.97534
G1 X96.313 Y103.631 E38.04788
G1 X97.253 Y103.631 E38.08346
G1 X116.369 Y122.747 E39.10569
G1 X116.369 Y121.806 E39.14126
G1 X109.547 Y114.984 E39.50607
G1 X110.488 Y114.984 E39.54165
G1 X116.369 Y120.865 E39.85615
G1 X116.369 Y119.924 E39.89173
G1 X111.429 Y114.984 E40.15593
G1 X112.370 Y114.984 E40.19150
G1 X116.369 Y118.984 E40.40539
G1 X116.369 Y118.043 E40.44096
G1 X113.062 Y114.735 E40.61785
G1 X113.607 Y114.339 E40.64332
G1 X116.369 Y117.102 E40.79106
G1 X116.369 Y116.161 E40.82663
G1 X114.151 Y113.943 E40.94524
G1 X114.696 Y113.547 E40.97071
G1 X116.369 Y115.220 E41.06018
G1 X116.369 Y114.280 E41.09575
G1 X115.241 Y113.151 E41.15609
G1 X115.529 Y112.498 E41.18308
G1 X116.369 Y113.339 E41.22805
G1 X116.188 Y107.512 F7800.000
G1 X112.306 Y103.631 E41.43563 F1080.000
G1 X111.365 Y103.631 E41.47120
G1 X112.834 Y105.100 E41.54976
G1 X111.810 Y105.016 E41.58862
G1 X110.424 Y103.631 E41.66272
G1 X109.483 Y103.631 E41.69830
G1 X110.869 Y105.016 E41.77240
G1 X109.928 Y105.016 E41.80797
G1 X108.543 Y103.631 E41.88208
G1 X107.602 Y103.631 E41.91765
G1 X109.195 Y105.224 E42.00285
G1 X108.650 Y105.620 E42.02831
G1 X106.661 Y103.631 E42.13468
G1 X105.720 Y103.631 E42.17025
G1 X108.105 Y106.016 E42.29779
G1 X107.560 Y106.411 E42.32326
G1 X104.780 Y103.631 E42.47197
G1 X103.839 Y103.631 E42.50754
G1 X107.016 Y106.807 E42.67742
G1 X106.695 Y107.428 E42.70382
G1 X102.898 Y103.631 E42.90689
G1 X101.957 Y103.631 E42.94247
G1 X106.465 Y108.138 E43.18351
G1 X106.234 Y108.848 E43.21174
G1 X101.016 Y103.631 E43.49075
G1 X100.076 Y103.631 E43.52632
G1 X106.003 Y109.558 E43.84331
G1 X106.031 Y110.527 E43.87994
G1 X99.135 Y103.631 E44.24870
G1 X98.194 Y103.631 E44.28427
G1 X106.484 Y111.920 E44.72756
G1 F1800.000 E43.72756
G92 E0
G1 X113.474 Y103.858 F7800.000
G1 E1.00000 F1800.000
G1 X116.369 Y106.753 E1.15482 F1080.000
G1 X116.369 Y105.813 E1.19039
G1 X114.313 Y103.757 E1.30034
G1 X115.503 Y104.005 E1.34630
G1 X115.637 Y104.139 E1.35345
G1 X112.054 Y125.016 F7800.000
G1 X90.668 Y103.631 E2.49705 F1080.000
G1 X91.609 Y103.631 E2.53262
G1 X113.725 Y125.747 E3.71531
G1 X111.113 Y125.016 F7800.000
G1 X89.727 Y103.631 E4.85891 F1080.000
G1 X88.786 Y103.631 E4.89448
G1 X90.172 Y105.016 E4.96858
G1 X89.231 Y105.016 E5.00416
G1 X87.846 Y103.631 E5.07826
G1 X86.905 Y103.631 E5.11383
G1 X88.291 Y105.016 E5.18793
G1 X87.350 Y105.016 E5.22351
G1 X86.006 Y103.672 E5.29537
G1 X85.167 Y103.774 E5.32732
G1 X86.776 Y105.383 E5.41335
G1 X86.231 Y105.779 E5.43882
G1 X84.507 Y104.055 E5.53100
G1 X84.033 Y104.522 E5.55616
G1 X85.451 Y105.940 E5.63196
G1 X84.906 Y106.336 E5.65743
G1 X83.747 Y105.176 E5.71942
G1 X83.747 Y106.117 E5.75499
G1 X84.361 Y106.731 E5.78784
G1 X83.816 Y107.127 E5.81331
G1 X83.747 Y107.058 E5.81702
G1 F1800.000 E4.81702
G92 E0
G1 X89.791 Y114.984 F7800.000
G1 E1.00000 F1800.000
G1 X106.366 Y131.559 E1.88637 F1080.000
G1 X105.914 Y130.166 E1.94177
G1 X90.642 Y114.894 E2.75840
G1 X91.187 Y114.498 E2.78387
G1 X106.063 Y129.374 E3.57935
G1 X106.294 Y128.664 E3.60758
G1 X91.732 Y114.103 E4.38626
G1 X92.277 Y113.707 E4.41173
G1 X106.525 Y127.954 E5.17361
G1 X106.755 Y127.244 E5.20185
G1 X92.822 Y113.311 E5.94693
G1 X93.236 Y112.784 E5.97226
G1 X107.157 Y126.705 E6.71669
G1 X107.702 Y126.309 E6.74216
G1 X93.466 Y112.074 E7.50338
G1 X93.697 Y111.364 E7.53161
G1 X108.246 Y125.913 E8.30964
G1 X108.791 Y125.517 E8.33510
G1 X93.928 Y110.654 E9.12993
G1 X94.104 Y109.889 E9.15959
G1 X109.336 Y125.121 E9.97413
G1 X110.172 Y125.016 E10.00598
G1 X93.651 Y108.495 E10.88943
G1 F1800.000 E9.88943
G92 E0
G1 X83.631 Y119.172 F7800.000
G1 E1.00000 F1800.000
G1 X89.475 Y125.016 E1.31253 F1080.000
G1 X88.534 Y125.016 E1.34811
G1 X83.631 Y120.113 E1.61033
G1 X83.631 Y121.053 E1.64591
G1 X87.593 Y125.016 E1.85783
G1 X86.917 Y125.281 E1.88529
G1 X83.631 Y121.994 E2.06103
G1 X83.631 Y122.935 E2.09660
G1 X86.372 Y125.676 E2.24321
G1 X85.827 Y126.072 E2.26868
G1 X83.631 Y123.876 E2.38614
G1 X83.631 Y124.816 E2.42171
G1 X85.282 Y126.468 E2.51004
G1 X84.737 Y126.864 E2.53551
G1 X83.631 Y125.757 E2.59470
G1 X83.631 Y126.698 E2.63027
G1 X84.462 Y127.530 E2.67476
